!!!!SEGMENT: pl-kk--kk-i-137--002_anonim--caro-mea-qui-manducat.krn
!!!cenid: 16xx:752
!!!COM: Anonim
!!!COM-rismid: pe30004985
!!!CDT:
!!!CNT:
!!!OTL: Caro mea
!!!OMV: 002
!!!PDT:
!!!AGN: Sacred
!!!SMS-siglum: PL-Kk
!!!SMS-shelfmark: Kk.I.137
!!!SMS-shelfwork: 001-002 W
!!!SMS-variant:
!!!SMS-altvar:
!!!NIFC-rismid: 1001143560
!!!URL-scan: http://repozytorium.nifc.pl/skany/pl-kk-nut--i-137
!!!ONB-nifc: UWAGA: części Caro mea: 1. Caro mea (Largo), 2. Qui manducat, 3. Alleluja (Allegro)
**kern	**fba	**kern	**text	**kern	**text	**kern	**text
*part4	*	*part3	*part3	*part2	*part2	*part1	*part1
*staff4	*	*staff3	*staff3	*staff2	*staff2	*staff1	*staff1
*Iorgan	*	*Iempty	*	*Ivox	*	*Ivox	*
*I"[Organo]	*	*I"Baſso	*	*I"Canto 2do	*	*I"Canto pmo	*
*I'org	*	*I'B	*	*I'S 2	*	*I'S 1	*
*clefF4	*	*clefF4	*	*clefC1	*	*clefC1	*
*k[b-]	*	*k[b-]	*	*k[b-]	*	*k[b-]	*
*F:	*	*F:	*	*F:	*	*F:	*
*M3/2	*	*M3/2	*	*M3/2	*	*M3/2	*
=1	=1	=1	=1	=1	=1	=1	=1
*all\right	*	*all\right	*	*all\right	*	*all\right	*
*2\right	*	*	*	*	*	*	*
!LO:TX:a:t=Ad&colon;o	!	!	!	!	!	!	!
!LO:TX:b:t=qui manducat	!	!LO:TX:b:t=10	!LO:N:vis=00	!	!LO:N:vis=00	!	!
2B-\	.	00.r	.	00.r	.	2r	.
2BB-/	.	.	.	.	.	(4b-\	Qui
.	.	.	.	.	.	4cc\)	.
2B-\	.	.	.	.	.	(4dd\	man-
.	.	.	.	.	.	4ee-X\)	.
=2	=2	=2	=2	=2	=2	=2	=2
*	*	*	*	*	*	*2\right	*
2A\	.	.	.	.	.	2ff\	-du-
2AA/	.	.	.	.	.	2cc\	-cat
2A\	6	.	.	.	.	4ff\	me-
!	!	!	!	!	!	!LO:SIC:v:s=4ee-	!
.	.	.	.	.	.	4ee\	-a(m)
=3	=3	=3	=3	=3	=3	=3	=3
2B-\	.	.	.	.	.	2dd\	car-
2BB-/	.	.	.	.	.	2b-\	-nem
2B-\	.	.	.	.	.	2dd\	et
=4	=4	=4	=4	=4	=4	=4	=4
2A\	.	.	.	.	.	2.cc\	bi-
2AA/	.	.	.	.	.	.	.
.	.	.	.	.	.	4dd\	-bit
2G\	4	.	.	.	.	4b-\	me-
.	6	.	.	.	.	4cc\	-um
!	!	!	!	!	!	!LO:LB:g=original	!
=5	=5	=5	=5	=5	=5	=5	=5
!	!	!LO:N:vis=00	!	!	!	!	!
1.F\	.	00.r	.	1.r	.	4.a\	San-
.	.	.	.	.	.	8g/	-gui-
.	.	.	.	.	.	2f/	-nem
.	.	.	.	.	.	4cc\	in
.	.	.	.	.	.	4cc\	me
!LO:LB:g=original	!	!	!	!	!	!	!
=6	=6	=6	=6	=6	=6	=6	=6
2B-\	.	.	.	2r	.	[1.ff\	ma-
2BB-/	.	.	.	(4b-\	Qui	.	.
.	.	.	.	4cc\)	.	.	.
2B-\	.	.	.	(4dd\	man-	.	.
.	.	.	.	4ee-X\)	.	.	.
=7	=7	=7	=7	=7	=7	=7	=7
*	*	*	*	*2\right	*	*	*
2A\	.	.	.	2ff\	-du-	1.ff\_	.
2AA/	.	.	.	2cc\	-cat	.	.
2A\	.	.	.	4ff\	me-	.	.
!	!	!	!	!LO:SIC:v:s=4ee-	!	!	!
.	.	.	.	4ee\	-a(m)	.	.
=8	=8	=8	=8	=8	=8	=8	=8
2B-\	.	.	.	2dd\	car-	1.ff\_	.
2BB-/	.	.	.	2b-\	-nem	.	.
2B-\	.	.	.	2dd\	et	.	.
!	!	!	!	!LO:LB:g=original	!	!	!
=9	=9	=9	=9	=9	=9	=9	=9
!	!	!LO:N:vis=0	!	!	!	!	!
2A\	.	0.r	.	2.cc\	bi-	1.ff\]	-net
2AA/	.	.	.	.	.	.	.
.	.	.	.	4dd\	-bit	.	.
2G\	4	.	.	4b-\	me-	.	.
.	6	.	.	4cc\	-u(m)	.	.
=10	=10	=10	=10	=10	=10	=10	=10
!	!	!	!	!	!	!LO:TX:b:t=6	!
!	!	!	!	!	!	!LO:N:vis=00	!
1.F\	.	.	.	4.a\	san-	00.r	.
.	.	.	.	8g\	-gui-	.	.
.	.	.	.	2f/	-ne(m)	.	.
.	.	.	.	4f/	in	.	.
.	.	.	.	4f/	me	.	.
=11	=11	=11	=11	=11	=11	=11	=11
2F\	.	2r	.	[1.cc\	ma-	.	.
2FF/	.	(4F\	Qui	.	.	.	.
.	.	4G\)	.	.	.	.	.
2F\	.	(4A\	man-	.	.	.	.
.	.	4B-\)	.	.	.	.	.
=12	=12	=12	=12	=12	=12	=12	=12
*	*	*2\right	*	*	*	*	*
2En\	6	2c\	-du-	1.cc\_	.	.	.
!	!	!LO:SIC:v:s=4G	!	!	!	!	!
2EE/	.	2F\	-cat	.	.	.	.
2E\	.	4c\	me-	.	.	.	.
.	.	4B-\	-a(m)	.	.	.	.
=13	=13	=13	=13	=13	=13	=13	=13
2F\	.	2A\	car-	1.cc\_	.	.	.
2FF/	.	2F\	-ne(m)	.	.	.	.
2F\	.	2A\	et	.	.	.	.
!LO:LB:g=original	!	!	!	!	!	!	!
=14	=14	=14	=14	=14	=14	=14	=14
!	!	!	!	!	!	!LO:N:vis=0	!
2E\	6	2.G\	bi-	1.cc\]	-net	0.r	.
2EE/	.	.	.	.	.	.	.
.	.	4A\	-bit	.	.	.	.
2D\	#6	4F\	me-	.	.	.	.
.	.	4G\	-um	.	.	.	.
!	!	!LO:LB:g=original	!	!	!	!	!
=15	=15	=15	=15	=15	=15	=15	=15
!	!	!	!	!LO:TX:b:t=1	!	!	!
1.C/	.	4.E\	san-	1.r	.	.	.
.	.	8D\	-gui-	.	.	.	.
.	.	2C/	-ne(m)	.	.	.	.
.	.	4G\	in	.	.	.	.
.	.	4G\	me	.	.	.	.
!	!	!	!	!LO:LB:g=original	!	!LO:LB:g=original	!
=16	=16	=16	=16	=16	=16	=16	=16
2F\	.	[1.c\	ma-	2r	.	2r	.
2FF/	.	.	.	2r	.	2r	.
2F\	.	.	.	2a\	et	2ff\	et
=17	=17	=17	=17	=17	=17	=17	=17
1C/	.	1.c\]	.	2g\	e-	2ee\	e-
.	.	.	.	2g\	-go	2ee\	-go
2F\	.	.	.	2a\	in	2ff\	in
=18	=18	=18	=18	=18	=18	=18	=18
1C/	.	1.c\	-net	2g/	e-	2ee\	e-
.	.	.	.	2g/	-o	2ee\	-o
2A\	.	.	.	2r	.	4ff\	in
.	.	.	.	.	.	4ee-X\	me
=19	=19	=19	=19	=19	=19	=19	=19
!	!	!	!	!LO:TX:b:t=1	!	!	!
2B-\	.	2r	.	1.r	.	4.dd\	ma-
.	.	.	.	.	.	8cc\	.
2BB-/	.	2r	.	.	.	4b-\	.
.	.	.	.	.	.	4cc\	.
2B-\	.	2B-\	et	.	.	4dd\	.
!	!	!	!	!	!	!LO:SIC:v:s=4ee-	!
.	.	.	.	.	.	4ee\	.
=20	=20	=20	=20	=20	=20	=20	=20
1F\	.	2A\	e-	2r	.	1.cc\	-net
.	.	2F\	-go	2r	.	.	.
2A\	6	2A\	in	4ff\	in	.	.
.	.	.	.	4ee-X\	me	.	.
!LO:LB:g=original	!	!LO:LB:g=original	!	!	!	!	!
=21	=21	=21	=21	=21	=21	=21	=21
!	!	!	!	!	!	!LO:TX:b:t=2	!
!	!	!	!	!	!	!LO:N:vis=0	!
2B-\	.	2B-\	e-	4.dd\	ma-	0.r	.
.	.	.	.	8cc\	.	.	.
2BB-/	.	2BB-/	-o	4b-\	.	.	.
.	.	.	.	4cc\	.	.	.
2B-\	.	2B-\	et	4dd\	.	.	.
.	.	.	.	4ee-X\	[[-net]]	.	.
!	!	!	!	!LO:LB:g=original	!	!	!
=22	=22	=22	=22	=22	=22	=22	=22
1F\	.	2A\	e-	1.cc\	-net	.	.
.	.	2F\	-go	.	.	.	.
2A\	.	2A\	in	.	.	.	.
!	!	!	!	!	!	!LO:LB:g=original	!
=23	=23	=23	=23	=23	=23	=23	=23
2B-\	.	2B-\	e-	2r	.	2r	.
2BB-/	.	2BB-/	-o	2r	.	2r	.
2B-\	.	2r	.	2b-\	et	2dd\	et
=24	=24	=24	=24	=24	=24	=24	=24
!	!	!LO:TX:b:t=1	!	!	!	!	!
1F\	.	1.r	.	2a\	e-	2cc\	e-
.	.	.	.	2a\	-go	2cc\	-go
2B-\	.	.	.	2b-\	in	2dd\	in
=25	=25	=25	=25	=25	=25	=25	=25
1F\	.	2r	.	2a\	e-	2cc\	e-
.	.	2r	.	2a\	-o	2cc\	-o
2F\	.	2F\	et	2r	.	2r	.
=26	=26	=26	=26	=26	=26	=26	=26
!	!	!	!	!	!	!LO:TX:b:t=2	!
!	!	!	!	!	!	!LO:N:vis=0	!
2B-\	.	2.B-\	e-	2rf	.	0.r	.
2BB-/	.	.	.	2rf	.	.	.
.	.	4c\	.	.	.	.	.
2A\	6	4A\	.	2f/	et	.	.
.	.	4B-\	.	.	.	.	.
!	!	!LO:LB:g=original	!	!	!	!	!
=27	=27	=27	=27	=27	=27	=27	=27
!LO:SIC:v:s=2G	!	!	!	!	!	!	!
2F\	6	2.G\	.	2.b-\	e-	.	.
2GG/	.	.	.	.	.	.	.
.	.	4A\	.	4cc\	.	.	.
2F\	6	4F\	.	4a\	.	.	.
.	.	4G\	.	4b-\	.	.	.
!LO:LB:g=original	!	!	!	!LO:LB:g=original	!	!	!
=28	=28	=28	=28	=28	=28	=28	=28
2E-X\	.	2.E-X\	.	2.g/	.	2r	.
2EE-X/	.	.	.	.	.	2r	.
.	.	4F\	.	4a\	.	.	.
2D\	6	4D\	.	4f\	.	2b-\	et
.	.	4E-X\	.	4g/	.	.	.
=29	=29	=29	=29	=29	=29	=29	=29
2C/	6 -	2C/	.	2e-X/	.	2.ee-X\	e-
2CC/	.	2C/	.	2e-/	-go	.	.
.	.	.	.	.	.	4ff\	-go
2BB-/	.	2BB-/	-go	2b-\	in	4dd\	in
.	.	.	.	.	.	4ee-\	.
!	!	!	!	!	!	!LO:LB:g=original	!
=30	=30	=30	=30	=30	=30	=30	=30
2E-X\	.	2E-X\	in	1b-\	e-	2dd\	e-
2F\	4	1F\	e-	.	.	2.cc\	.
2FF/	3	.	.	2a\	.	.	.
.	.	.	.	.	.	4b-\	.
=31	=31	=31	=31	=31	=31	=31	=31
1BB-/	.	1BB-/	-o	1.b-\	-o	1b-\	-o
!LO:N:acc=#	!	!	!	!	!	!	!
2Bn\	.	2r	.	.	.	4gg\	in
.	.	.	.	.	.	4ff\	me
!	!	!LO:LB:g=original	!	!	!	!	!
=32	=32	=32	=32	=32	=32	=32	=32
!	!	!	!	!LO:TX:b:t=1	!	!	!
*	*below	*	*	*	*	*	*
2c\	-	2r	.	1.r	.	4.ee-X\	ma-
.	.	.	.	.	.	8dd\	.
2C/	.	2r	.	.	.	4cc\	.
.	.	.	.	.	.	4dd\	.
2c\	.	2c\	et	.	.	4ee-\	.
.	.	.	.	.	.	4ff\	.
!LO:LB:g=original	!	!	!	!	!	!	!
=33	=33	=33	=33	=33	=33	=33	=33
!LO:N:acc=#	!	!LO:N:acc=#	!	!	!	!	!
2Bn\	.	2Bn\	e-	2r	.	1.dd\	-net
2G\	.	2G\	-go	2r	.	.	.
!LO:N:acc=#	!	!LO:N:acc=#	!	!	!	!	!
2Bn\	.	2Bn\	in	4gg\	in	.	.
.	.	.	.	4ff\	me	.	.
!	!	!	!	!LO:LB:g=original	!	!	!
=34	=34	=34	=34	=34	=34	=34	=34
!	!	!	!	!	!	!LO:TX:b:t=2	!
!	!	!	!	!	!	!LO:N:vis=0	!
2c\	.	2c\	e-	4.ee-X\	ma-	0.r	.
.	.	.	.	8dd\	.	.	.
2C/	.	2C/	-o	4cc\	.	.	.
.	.	.	.	4dd\	.	.	.
2c\	.	2c\	et	4ee-X\	.	.	.
.	.	.	.	4ff\	.	.	.
=35	=35	=35	=35	=35	=35	=35	=35
!LO:N:acc=#	!	!LO:N:acc=#	!	!	!	!	!
2Bn\	.	2Bn\	e-	1dd\	-net	.	.
2G\	.	2G\	-go	.	.	.	.
!	!	!LO:N:acc=#	!	!	!	!	!
2B\	.	2Bn\	in	2r	.	.	.
=36	=36	=36	=36	=36	=36	=36	=36
2c\	.	2c\	e-	2r	.	2r	.
2C/	.	2C/	-o	2r	.	2r	.
2c\	.	2r	.	2cc\	et	2ee-X\	et
!	!	!LO:LB:g=original	!	!	!	!LO:LB:g=original	!
=37	=37	=37	=37	=37	=37	=37	=37
!	!	!LO:TX:b:t=1	!	!LO:N:acc=#	!	!	!
[2G\	.	1.r	.	2bn\	e-	2dd\	e-
2G\]	.	.	.	2b\	-go	2dd\	-go
2c\	.	.	.	2cc\	in	2ee-X\	in
=38	=38	=38	=38	=38	=38	=38	=38
!	!	!	!	!LO:SIC:v:s=2bn	!	!	!
1G\	.	2r	.	2b-\	e-	2dd\	e-
!	!	!	!	!LO:SIC:v:s=2b	!	!	!
.	.	2r	.	2b-\	-o	2dd\	-o
2G\	.	2G\	et	2r	.	2r	.
!LO:LB:g=original	!	!	!	!LO:LB:g=original	!	!	!
=39	=39	=39	=39	=39	=39	=39	=39
!	!	!	!	!	!	!LO:TX:b:t=2	!
!	!	!	!	!	!	!LO:N:vis=0	!
2c\	.	2.c\	e-	2r	.	0.r	.
2C/	.	.	.	2r	.	.	.
.	.	4d\	.	.	.	.	.
2B-\	.	4B-\	.	2g\	et	.	.
.	.	4c\	.	.	.	.	.
=40	=40	=40	=40	=40	=40	=40	=40
2A-X\	.	2.A-X\	.	2.cc\	e-	.	.
2AA-X/	.	.	.	.	.	.	.
!	!	!	!	!LO:SIC:v:s=4dd	!	!	!
.	.	4B-\	.	4ee\	.	.	.
*	*above	*	*	*	*	*	*
2G\	-6	4G\	.	4b-\	.	.	.
.	.	4A-\	.	4cc\	.	.	.
=41	=41	=41	=41	=41	=41	=41	=41
2F\	6	2.F\	.	2.a-X\	.	2r	.
2FF/	.	.	.	.	.	2r	.
.	.	4G\	.	4b-\	.	.	.
2E-X\	6	4E-X\	.	4g\	.	2cc\	et
.	.	4F\	.	4a-X\	.	.	.
!	!	!LO:PB:g=original	!	!	!	!	!
=42	=42	=42	=42	=42	=42	=42	=42
2D\	.	1D\	.	2f/	.	2.ff\	e-
2DD/	#6	.	.	2f/	-go	.	.
.	.	.	.	.	.	4gg\	.
2C/	-	2C/	-go	2cc\	in	4ee-X\	-go
.	.	.	.	.	.	4ff\	in
=43	=43	=43	=43	=43	=43	=43	=43
2F\	-	2F\	in	1cc\	e-	2ee-X\	e-
2G\	4	1G\	e-	.	.	2.dd\	.
!	!	!	!	!LO:N:acc=#	!	!	!
2GG/	#3	.	.	2bn\	.	.	.
.	.	.	.	.	.	4cc\	.
!	!	!	!	!LO:PB:g=original	!	!LO:PB:g=original	!
=44	=44	=44	=44	=44	=44	=44	=44
1C/	.	1C/	-o	1cc\	-o	1cc\	-o
2A\	6	2r	.	2r	.	4ff\	in
.	.	.	.	.	.	4ee-X\	me
=45	=45	=45	=45	=45	=45	=45	=45
!	!	!	!	!LO:TX:b:t=1	!	!	!
2B-\	.	2rG	.	1.r	.	4.dd\	ma-
.	.	.	.	.	.	8cc\	.
2BB-/	.	2rG	.	.	.	4b-\	.
.	.	.	.	.	.	4cc\	.
2B-\	.	2B-\	et	.	.	4dd\	.
!	!	!	!	!	!	!LO:SIC:v:s=4ee-	!
.	.	.	.	.	.	4ee\	.
!LO:PB:g=original	!	!	!	!	!	!	!
=46	=46	=46	=46	=46	=46	=46	=46
2A\	.	2A\	e-	2r	.	1.cc\	-net
2F\	.	2F\	-go	2r	.	.	.
2A\	.	2A\	in	4ff\	in	.	.
.	.	.	.	4ee-X\	me	.	.
=47	=47	=47	=47	=47	=47	=47	=47
!	!	!	!	!	!	!LO:TX:b:t=2	!
!	!	!	!	!	!	!LO:N:vis=0	!
2B-\	.	2B-\	e-	4.dd\	ma-	0.r	.
.	.	.	.	8cc\	.	.	.
2BB-/	.	2BB-/	-o	4b-\	.	.	.
.	.	.	.	4cc\	.	.	.
2B-\	.	2B-\	et	4dd\	.	.	.
.	.	.	.	4ee-X\	.	.	.
=48	=48	=48	=48	=48	=48	=48	=48
2A\	.	2A\	e-	1cc\	-net	.	.
2F\	.	2F\	-go	.	.	.	.
2A\	.	2A\	in	2r	.	.	.
!	!	!LO:LB:g=original	!	!	!	!	!
=49	=49	=49	=49	=49	=49	=49	=49
2B-\	.	2B-\	e-	2r	.	2r	.
2BB-/	.	2BB-/	-o	2r	.	2r	.
2B-\	.	2r	.	2b-\	et	2dd\	et
!	!	!	!	!LO:LB:g=original	!	!	!
=50	=50	=50	=50	=50	=50	=50	=50
!	!	!LO:TX:b:t=1	!	!	!	!	!
1F\	.	1.r	.	2a\	e-	2cc\	e-
.	.	.	.	2a\	-go	2cc\	-go
2B-\	.	.	.	2b-\	in	2dd\	in
!	!	!	!	!	!	!LO:LB:g=original	!
=51	=51	=51	=51	=51	=51	=51	=51
1F\	.	2r	.	2a\	e-	2cc\	e-
.	.	2r	.	2a\	-o	2cc\	-o
2F\	.	2F\	et	2r	.	2r	.
=52	=52	=52	=52	=52	=52	=52	=52
!	!	!	!	!	!	!LO:TX:b:t=2	!
!	!	!	!	!	!	!LO:N:vis=0	!
2B-\	6	2.B-\	e-	2r	.	0.r	.
2BB-/	.	.	.	2r	.	.	.
.	.	4c\	.	.	.	.	.
2A\	6	4A\	.	2f/	et	.	.
.	.	4B-\	.	.	.	.	.
=53	=53	=53	=53	=53	=53	=53	=53
2G\	6	2.G\	.	2.b-\	e-	.	.
2GG/	.	.	.	.	.	.	.
.	.	4A\	.	4cc\	.	.	.
2F\	6	4F\	.	4a\	.	.	.
.	.	4G\	.	4b-\	.	.	.
!LO:LB:g=original	!	!	!	!	!	!	!
=54	=54	=54	=54	=54	=54	=54	=54
2E-X\	.	2.E-X\	.	2.g\	.	2r	.
2EE-X/	.	.	.	.	.	2r	.
.	.	4F\	.	4a\	.	.	.
2D\	6	4D\	.	4f\	.	2b-\	et
.	.	4E-X\	.	4g\	.	.	.
!	!	!LO:LB:g=original	!	!LO:LB:g=original	!	!	!
=55	=55	=55	=55	=55	=55	=55	=55
2C/	-	1C/	.	2e-X/	.	2.ee-X\	e-
2CC/	.	.	.	2e-/	-go	.	.
.	.	.	.	.	.	4ff\	.
2BB-/	.	2BB-/	-go	2b-\	in	4dd\	-go
.	.	.	.	.	.	4ee-X\	in
=56	=56	=56	=56	=56	=56	=56	=56
2E-X\	6 5	2E-X\	in	1b-\	e-	2dd\	e-
2F\	4	1F\	e-	.	.	2.cc\	.
.	3	.	.	.	.	.	.
2FF/	.	.	.	2a\	.	.	.
.	.	.	.	.	.	4b-\	.
=57	=57	=57	=57	=57	=57	=57	=57
1BB-/	.	1BB-/	-o	1b-\	-o	1.b-\	-o
2F\	.	2F\	et	2r	.	.	.
!	!	!	!	!	!	!LO:LB:g=original	!
=58	=58	=58	=58	=58	=58	=58	=58
!	!	!	!	!LO:TX:b:t=2	!	!	!
!	!	!	!	!LO:N:vis=0	!	!	!
2B-\	.	2.B-\	e-	0.r	.	2r	.
2BB-/	6	.	.	.	.	2r	.
.	.	4c\	.	.	.	.	.
2A\	6	4A\	.	.	.	2f/	et
.	.	4B-\	.	.	.	.	.
=59	=59	=59	=59	=59	=59	=59	=59
2G\	-6	2.G\	.	.	.	2.b-\	e-
2GG/	.	.	.	.	.	.	.
.	.	4A\	.	.	.	4cc\	.
2F\	6	4F\	.	.	.	4a\	.
.	.	4G\	.	.	.	4b-\	.
=60	=60	=60	=60	=60	=60	=60	=60
2E-X\	.	2.E-X\	.	2r	.	2.g\	.
2EE-X/	.	.	.	2r	.	.	.
.	.	4F\	.	.	.	4a\	.
2D\	6	4D\	.	2b-\	et	4f\	.
.	.	4E-X\	.	.	.	4g\	.
!LO:LB:g=original	!	!LO:LB:g=original	!	!	!	!	!
=61	=61	=61	=61	=61	=61	=61	=61
2C/	-	1C/	.	2.ee-X\	e-	2e-X/	.
2CC/	.	.	.	.	.	2e-/	-go
.	.	.	.	4ff\	.	.	.
2BB-/	-	2BB-/	-go	4dd\	-go	2b-\	in
.	.	.	.	4ee-X\	in	.	.
!	!	!	!	!LO:LB:g=original	!	!	!
=62	=62	=62	=62	=62	=62	=62	=62
2E-X\	6 5	2E-X\	in	2dd\	e-	1b-\	e-
2F\	4	1F\	e-	2.cc\	.	.	.
2FF/	3	.	.	.	.	2a\	.
.	.	.	.	4b-\	.	.	.
=63	=63	=63	=63	=63	=63	=63	=63
1.BB-/	.	1.BB-/	-o	1.b-\	-o	1.b-\	-o
==	==	==	==	==	==	==	==
*-	*-	*-	*-	*-	*-	*-	*-
!!!system-decoration: [(s1,s2,s3)]s4
!!!ENC: Marta Lawrence
!!!END: 2021-02-17
!!!ENC: Andrzej Borzym
!!!END: 2021-02-11
